packages/icons/src/backpack.svg

<svg width="15" height="15" viewBox="0 0 15 15" fill="none" xmlns="http://www.w3.org/2000/svg">
  <path
    fill-rule="evenodd"
    clip-rule="evenodd"
    d="M5 1C5 0.447715 5.44772 0 6 0H9C9.55228 0 10 0.447715 10 1V2H14C14.5523 2 15 2.44772 15 3V6C15 6.8888 14.6131 7.68734 14 8.23608V11.5C14 12.3284 13.3284 13 12.5 13H2.5C1.67157 13 1 12.3284 1 11.5V8.2359C0.38697 7.68721 0 6.88883 0 6V3C0 2.44772 0.447716 2 1 2H5V1ZM9 1V2H6V1H9ZM1 3H5H5.5H9.5H10H14V6C14 6.654 13.6866 7.23467 13.1997 7.6004C12.8655 7.85144 12.4508 8 12 8H8V7.5C8 7.22386 7.77614 7 7.5 7C7.22386 7 7 7.22386 7 7.5V8H3C2.5493 8 2.1346 7.85133 1.80029 7.60022C1.31335 7.23446 1 6.65396 1 6V3ZM7 9H3C2.64961 9 2.31292 8.93972 2 8.82905V11.5C2 11.7761 2.22386 12 2.5 12H12.5C12.7761 12 13 11.7761 13 11.5V8.82915C12.6871 8.93978 12.3504 9 12 9H8V9.5C8 9.77614 7.77614 10 7.5 10C7.22386 10 7 9.77614 7 9.5V9Z"
    fill="currentColor"
  />
</svg>

<svg xmlns="http://www.w3.org/2000/svg" width="15" height="15" fill="none"><path fill="currentColor" fill-rule="evenodd" d="M5 1a1 1 0 0 1 1-1h3a1 1 0 0 1 1 1v1h4a1 1 0 0 1 1 1v3c0 .889-.387 1.687-1 2.236V11.5a1.5 1.5 0 0 1-1.5 1.5h-10A1.5 1.5 0 0 1 1 11.5V8.236A3 3 0 0 1 0 6V3a1 1 0 0 1 1-1h4zm4 0v1H6V1zM1 3h13v3a1.996 1.996 0 0 1-2 2H8v-.5a.5.5 0 0 0-1 0V8H3a1.996 1.996 0 0 1-2-2zm6 6H3c-.35 0-.687-.06-1-.17v2.67a.5.5 0 0 0 .5.5h10a.5.5 0 0 0 .5-.5V8.83c-.313.11-.65.17-1 .17H8v.5a.5.5 0 0 1-1 0z" clip-rule="evenodd"/></svg>
